public/avatar/hat/246.svg

<svg xmlns:xlink="http://www.w3.org/1999/xlink" height="92.9" width="100.7" xmlns="http://www.w3.org/2000/svg"><use height="32" transform="translate(17.05 35.8)" width="41.5" xlink:href="#a"/><defs><g id="a" fill-rule="evenodd"><path d="M12 4.15q2.9-1.8 4.8.15 1.45 1.55 1.2 7.95-.25 3.9-1.2 4.7-2.5 2.2-4.95-.1-2-1.9-1.25-9.25.3-2.8 1.4-3.45" transform="translate(21.6 13.95)"/><path d="M12.4 4.85q2.45-1.4 3.75 0 1.05 1.1 1.05 5.9-.05 4.75-.95 5.55l-3.85-.1q-.95-.9-1.05-5.7-.1-4.95 1.05-5.65" fill="#212321" transform="translate(21.6 13.95)"/><path d="m17.25 7.05 1.5.2q1.15.8 1.15 2.9.1 3.1-1.15 3.75l-1.35.25q-1.2-.15-1.2-3.45 0-3.55 1.05-3.65" transform="translate(21.6 13.95)"/><path d="M18.3 8q.85.55.8 2.6-.05 2-.85 2.6l-1.85.15q-.4-.15-.5-2.7-.1-2.65.7-2.8l1.7.15" fill="#212321" transform="translate(21.6 13.95)"/><path d="M-13.6 4.15q1.1.65 1.4 3.45.75 7.35-1.25 9.25-2.4 2.25-5 .1-1-.85-1.15-4.7-.5-6.2 1.2-7.95 1.9-1.95 4.8-.15" transform="translate(21.6 13.95)"/><path d="M-14.05 4.85q1.2.7 1.1 5.65-.15 4.8-1.1 5.7l-3.85.1q-.9-.8-.9-5.55 0-4.8 1-5.9 1.35-1.4 3.75 0" fill="#212321" transform="translate(21.6 13.95)"/><path d="M-18.9 7.05q1.05.1 1.05 3.65 0 3.3-1.15 3.45l-1.4-.25q-1.25-.65-1.15-3.75 0-2.1 1.2-2.9l1.45-.2" transform="translate(21.6 13.95)"/><path d="m-19.9 8 1.7-.15q1.15.25.15 5.5l-1.85-.15q-.8-.6-.8-2.6-.05-2.05.8-2.6" fill="#212321" transform="translate(21.6 13.95)"/><path d="M-16.75 9.85q-.3-.3.8-1l1.2-1q-2.25-.75-2-1.15.25-.35 1.6-.5 1.45-.15 1.8.35.55.7.5 4.15-.1 3.75-1.05 5.15-1.45 2.1-4 .45-.45-1 1.1-1.2l1.8-.3q.15-.35-.7-.8l-1.4-.9q-.35-.35.8-1l1.55-1q.2-.35-.65-.65l-1.35-.6m30.4-4.3q1.4.15 1.65.5l-.9.55q-1.1.4-1.15.7-.05.3 1.2 1.1 1.15.7.85 1.05l-1.4.6q-.85.3-.65.7l1.55 1.1q1.2.65.8 1.05l-1.4.9q-.85.5-.7.85l1.85.35q1.55.2 1.1 1.25-2.6 1.75-4.1-.45-1-1.5-1.05-5.45-.1-3.7.45-4.45.4-.55 1.9-.35" fill="#141414" transform="translate(21.6 13.95)"/><path d="M-1-13.95h.5q10.35.15 15.2 5.7Q19.15-3.2 17.95 6.7l-.05.6-.05.15-.65.35v-.15l-.85.1Q15.15-7.05-.8-7.05q-15.8 0-17 14.8l-1-.1v.15q-.1-.15-.65-.35v-.2l-.05-.55q-1.2-9.95 3.2-14.95 4.9-5.55 15.3-5.7" transform="translate(21.6 13.95)"/><path d="M-1-13.1h.45q19.9.25 17.75 19.75V7.7Q15.95-7.9-.8-7.9q-16.5 0-17.8 15.6l-.05-1.05Q-20.8-12.85-1-13.1" fill="#232323" transform="translate(21.6 13.95)"/><path d="m-19.15 8.55.05.25-.55 1.25q-.1 1.15.3 2.9-1-.65-1.15-2.6-.1-1.25.55-1.75l.8-.05m36.9 0 .85.05q.65.5.55 1.75-.2 1.95-1.2 2.6l.35-2.9-.6-1.25.05-.25" fill="#4c4c4e" transform="translate(21.6 13.95)"/><path d="m-17 3.25-1.25 9.85q-.3-2.9-.1-5.9l.6-4.35.75.4m32.65 0 .75-.4.6 4.35-.1 5.9q-.1-3.6-.7-7.1l-.55-2.75" transform="translate(21.6 13.95)"/><path d="M18 6.7q1.25.75-.05.8-.8.05-1.05.95-.1.45-.05.9-.25-.7-.2-1.5.05-.55.7-.9L18 6.7" transform="translate(21.6 13.95)"/><path d="M1.5-12.15q-9.9 0-15.35 3.85-3.05 2.2-4.3 8.7-.6 3.25-.6 6.05-.35-2.7 0-5.95.7-6.55 4.4-9.3Q-7-14.2 1.9-12.95q2.95.8-.4.8" fill="#4c4c4e" transform="translate(21.6 13.95)"/><path d="M-9.65-9.6q3.9-1.65 7.3-1.15l-4.9 1.35q-3.55 1.1 1.35.35Q1.3-10.15 8.75-6q-5-2.55-13.9-1.4-7 .9-10.6 6.4Q-17.6 1.75-18 4.3q.55-10.55 8.35-13.9" fill="#141414" transform="translate(21.6 13.95)"/><path d="M-17.7 10.65q.7-.25.8.45.1.7-.3.75-.35.05-.55-.5-.25-.55.05-.7m1.1 3.8q0 .35-.8.35-.45.05-.5-1.2 1.4.15 1.3.85m32.9-3.8q.35.15.1.7-.25.55-.6.5-.4-.05-.3-.75.1-.7.8-.45m-.4-3q.25 1.2-.2 1.1-.75-.2-.75-.65-.05-.45.95-.45m-.7 6.8q0-.7 1.3-.85-.05 1.25-.5 1.2-.75 0-.8-.35" fill="#4c4c4e" transform="translate(21.6 13.95)"/><path d="M-6.4-3.75q.45-1.05 1.9-1.3 1.55-.3 2.5.55 7.05-.45 11.25 2.95 3.55 2.95 3.85 8.1l-3.4.2q-.45-.25-1.2-.25L1.95 7.7l-8.25.65-2.5.85q-4.75 1.9-6.85 3.25-1.1-2.25-1.1-4.75 0-2.4 1.1-4.55 2.55-5.05 9.25-6.9" transform="translate(21.6 13.95)"/><path d="M-5.65-3.1q0-.9 1.3-1.15 1.5-.2 1.95.65 6-.55 9.95 1.9 3.95 2.45 4.6 7.3h-.7q-3.35 0-5.75.8l-1.8.7q-.3-.75-1.05-.75L-.6 7.55q-3.65 0-5.3.85-2.55 1.4-3.95 1.75-3.5.8-5 1.9Q-17.2 7-14.3 2.6q2.75-4.25 8.65-5.7" fill="#6f6f6f" transform="translate(21.6 13.95)"/><path d="M12.25 6.65 9.4 5.7Q11 2.35 9.15-.5q2.95 2.85 3.1 7.15" fill="#3a3a3d" transform="translate(21.6 13.95)"/><path d="M-18.15 9.15q.1-1.6-1.15-1.65-.85-.05-.55-.4l.45-.4.65.25q.65.35.7.9l-.1 1.3" transform="translate(21.6 13.95)"/><path d="M-17.25 7.65q.95 0 .9.45 0 .45-.75.65-.4.1-.15-1.1" fill="#4c4c4e" transform="translate(21.6 13.95)"/><path d="m-.5-3.7.05.05L2.6-2.2Q5.85.4 7.05 6.1L5.9 6l-1.05.05-2.8.85-5 .8q-1.75.05-3.45.65-3.1 0-6.4 2.1l-2.1 1.6q-2.35-5.05.55-9.45 2.7-4.25 8.6-5.7 0-.9 1.35-1.15 1.45-.2 1.9.65l2-.1" fill="#bbbdb8" transform="translate(21.6 13.95)"/><path d="m-.35-1.45.2.1q2.4 1.2 7.8 7.15l1.3 1.4-1.85.05q-13.4.25-21.65 4.25l-.35.15-.35-.2q-4-2.4-5.75-4.75-.95-1.15-.45-2.85.9-3.6 7.55-6.05 7.1-2.6 13.55.75" transform="translate(21.6 13.95)"/><path d="M-.5-.6q2.3 1.2 7.6 7-13.45.2-21.95 4.3-3.85-2.25-5.55-4.55-1.05-1.4.25-3.35 1.7-2.45 6.55-4.2 6.75-2.5 13.1.8" fill="#212321" transform="translate(21.6 13.95)"/><path d="M-13.7-1.4q6.8-2.5 13.15.8.6.3 1.45 1L.75.3Q-1.7-1.2-5.8-1.55-10.85-2-14.75 0q-4.65 2.4-4.85 4.25-.25 2.45 5.75 6l-1.05.45q-3.85-2.25-5.55-4.55-1.05-1.4.25-3.35 1.65-2.45 6.5-4.2" fill="#6f6f6f" transform="translate(21.6 13.95)"/><path d="M-6.9 1.65Q.45.85 5.95 5.5l-17.2 4.45Q-17.75 7-15.1 4.6q2.6-2.4 8.2-2.95" transform="translate(21.6 13.95)"/><path d="m7.3 5.35-.6-.5Q5.7-.4.05-3.4q5.9 1.85 7.8 8.8l-.55-.05" fill="#212321" transform="translate(21.6 13.95)"/></g></defs></svg>

<?xml version="1.0" encoding="UTF-8" standalone="no"?>
<svg xmlns:xlink="http://www.w3.org/1999/xlink" height="92.9px" width="100.7px" xmlns="http://www.w3.org/2000/svg">
  <g transform="matrix(1.0, 0.0, 0.0, 1.0, 38.65, 49.75)">
    <use height="32.0" transform="matrix(1.0, 0.0, 0.0, 1.0, -21.6, -13.95)" width="41.5" xlink:href="#shape0"/>
  </g>
  <defs>
    <g id="shape0" transform="matrix(1.0, 0.0, 0.0, 1.0, 21.6, 13.95)">
      <path d="M12.0 4.15 Q14.9 2.35 16.8 4.3 18.25 5.85 18.0 12.25 17.75 16.15 16.8 16.95 14.3 19.15 11.85 16.85 9.85 14.95 10.6 7.6 10.9 4.8 12.0 4.15" fill="#000000" fill-rule="evenodd" stroke="none"/>
      <path d="M12.4 4.85 Q14.85 3.45 16.15 4.85 17.2 5.95 17.2 10.75 17.15 15.5 16.25 16.3 L12.4 16.2 Q11.45 15.3 11.35 10.5 11.25 5.55 12.4 4.85" fill="#212321" fill-rule="evenodd" stroke="none"/>
      <path d="M17.25 7.05 L18.75 7.25 Q19.9 8.05 19.9 10.15 20.0 13.25 18.75 13.9 L17.4 14.15 Q16.2 14.0 16.2 10.7 16.2 7.15 17.25 7.05" fill="#000000" fill-rule="evenodd" stroke="none"/>
      <path d="M18.3 8.0 Q19.15 8.55 19.1 10.6 19.05 12.6 18.25 13.2 L16.4 13.35 Q16.0 13.2 15.9 10.65 15.8 8.0 16.6 7.85 L18.3 8.0" fill="#212321" fill-rule="evenodd" stroke="none"/>
      <path d="M-13.6 4.15 Q-12.5 4.8 -12.2 7.6 -11.45 14.95 -13.45 16.85 -15.85 19.1 -18.45 16.95 -19.45 16.1 -19.6 12.25 -20.1 6.05 -18.4 4.3 -16.5 2.35 -13.6 4.15" fill="#000000" fill-rule="evenodd" stroke="none"/>
      <path d="M-14.05 4.85 Q-12.85 5.55 -12.95 10.5 -13.1 15.3 -14.05 16.2 L-17.9 16.3 Q-18.8 15.5 -18.8 10.75 -18.8 5.95 -17.8 4.85 -16.45 3.45 -14.05 4.85" fill="#212321" fill-rule="evenodd" stroke="none"/>
      <path d="M-18.9 7.05 Q-17.85 7.15 -17.85 10.7 -17.85 14.0 -19.0 14.15 L-20.4 13.9 Q-21.65 13.25 -21.55 10.15 -21.55 8.05 -20.35 7.25 L-18.9 7.05" fill="#000000" fill-rule="evenodd" stroke="none"/>
      <path d="M-19.9 8.0 L-18.2 7.85 Q-17.05 8.1 -18.05 13.35 L-19.9 13.2 Q-20.7 12.6 -20.7 10.6 -20.75 8.55 -19.9 8.0" fill="#212321" fill-rule="evenodd" stroke="none"/>
      <path d="M-16.75 9.85 Q-17.05 9.55 -15.95 8.85 L-14.75 7.85 Q-17.0 7.1 -16.75 6.7 -16.5 6.35 -15.15 6.2 -13.7 6.05 -13.35 6.55 -12.8 7.25 -12.85 10.7 -12.95 14.45 -13.9 15.85 -15.35 17.95 -17.9 16.3 -18.35 15.3 -16.8 15.1 L-15.0 14.8 Q-14.85 14.45 -15.7 14.0 L-17.1 13.1 Q-17.45 12.75 -16.3 12.1 L-14.75 11.1 Q-14.55 10.75 -15.4 10.45 L-16.75 9.85" fill="#141414" fill-rule="evenodd" stroke="none"/>
      <path d="M13.65 5.55 Q15.05 5.7 15.3 6.05 L14.4 6.6 Q13.3 7.0 13.25 7.3 13.2 7.6 14.45 8.4 15.6 9.1 15.3 9.45 L13.9 10.05 Q13.05 10.35 13.25 10.75 L14.8 11.85 Q16.0 12.5 15.6 12.9 L14.2 13.8 Q13.35 14.3 13.5 14.65 L15.35 15.0 Q16.9 15.2 16.45 16.25 13.85 18.0 12.35 15.8 11.35 14.3 11.3 10.35 11.2 6.65 11.75 5.9 12.15 5.35 13.65 5.55" fill="#141414" fill-rule="evenodd" stroke="none"/>
      <path d="M-1.0 -13.95 L-0.5 -13.95 Q9.85 -13.8 14.7 -8.25 19.15 -3.2 17.95 6.7 L17.9 7.3 17.85 7.45 17.2 7.8 17.2 7.65 16.35 7.75 Q15.15 -7.05 -0.8 -7.05 -16.6 -7.05 -17.8 7.75 L-18.8 7.65 -18.8 7.8 Q-18.9 7.65 -19.45 7.45 L-19.45 7.25 -19.5 6.7 Q-20.7 -3.25 -16.3 -8.25 -11.4 -13.8 -1.0 -13.95" fill="#000000" fill-rule="evenodd" stroke="none"/>
      <path d="M-1.0 -13.1 L-0.55 -13.1 Q19.35 -12.85 17.2 6.65 L17.2 7.7 Q15.95 -7.9 -0.8 -7.9 -17.3 -7.9 -18.6 7.7 L-18.65 6.65 Q-20.8 -12.85 -1.0 -13.1" fill="#232323" fill-rule="evenodd" stroke="none"/>
      <path d="M-19.15 8.55 L-19.1 8.8 -19.65 10.05 Q-19.75 11.2 -19.35 12.95 -20.35 12.3 -20.5 10.35 -20.6 9.1 -19.95 8.6 L-19.15 8.55" fill="#4c4c4e" fill-rule="evenodd" stroke="none"/>
      <path d="M17.75 8.55 L18.6 8.6 Q19.25 9.1 19.15 10.35 18.95 12.3 17.95 12.95 L18.3 10.05 17.7 8.8 17.75 8.55" fill="#4c4c4e" fill-rule="evenodd" stroke="none"/>
      <path d="M-17.0 3.25 L-18.25 13.1 Q-18.55 10.2 -18.35 7.2 L-17.75 2.85 -17.0 3.25" fill="#000000" fill-rule="evenodd" stroke="none"/>
      <path d="M15.65 3.25 L16.4 2.85 17.0 7.2 16.9 13.1 Q16.8 9.5 16.2 6.0 L15.65 3.25" fill="#000000" fill-rule="evenodd" stroke="none"/>
      <path d="M18.0 6.7 Q19.25 7.45 17.95 7.5 17.15 7.55 16.9 8.45 16.8 8.9 16.85 9.35 16.6 8.65 16.65 7.85 16.7 7.3 17.35 6.95 L18.0 6.7" fill="#000000" fill-rule="evenodd" stroke="none"/>
      <path d="M1.5 -12.15 Q-8.4 -12.15 -13.85 -8.3 -16.9 -6.1 -18.15 0.4 -18.75 3.65 -18.75 6.45 -19.1 3.75 -18.75 0.5 -18.05 -6.05 -14.35 -8.8 -7.0 -14.2 1.9 -12.95 4.85 -12.15 1.5 -12.15" fill="#4c4c4e" fill-rule="evenodd" stroke="none"/>
      <path d="M-9.65 -9.6 Q-5.75 -11.25 -2.35 -10.75 L-7.25 -9.4 Q-10.8 -8.3 -5.9 -9.05 1.3 -10.15 8.75 -6.0 3.75 -8.55 -5.15 -7.4 -12.15 -6.5 -15.75 -1.0 -17.6 1.75 -18.0 4.3 -17.45 -6.25 -9.65 -9.6" fill="#141414" fill-rule="evenodd" stroke="none"/>
      <path d="M-17.7 10.65 Q-17.0 10.4 -16.9 11.1 -16.8 11.8 -17.2 11.85 -17.55 11.9 -17.75 11.35 -18.0 10.8 -17.7 10.65" fill="#4c4c4e" fill-rule="evenodd" stroke="none"/>
      <path d="M-16.6 14.45 Q-16.6 14.8 -17.4 14.8 -17.85 14.85 -17.9 13.6 -16.5 13.75 -16.6 14.45" fill="#4c4c4e" fill-rule="evenodd" stroke="none"/>
      <path d="M16.3 10.65 Q16.65 10.8 16.4 11.35 16.15 11.9 15.8 11.85 15.4 11.8 15.5 11.1 15.6 10.4 16.3 10.65" fill="#4c4c4e" fill-rule="evenodd" stroke="none"/>
      <path d="M15.9 7.65 Q16.15 8.85 15.7 8.75 14.95 8.55 14.95 8.1 14.9 7.65 15.9 7.65" fill="#4c4c4e" fill-rule="evenodd" stroke="none"/>
      <path d="M15.2 14.45 Q15.2 13.75 16.5 13.6 16.45 14.85 16.0 14.8 15.25 14.8 15.2 14.45" fill="#4c4c4e" fill-rule="evenodd" stroke="none"/>
      <path d="M-6.4 -3.75 Q-5.95 -4.8 -4.5 -5.05 -2.95 -5.35 -2.0 -4.5 5.05 -4.95 9.25 -1.55 12.8 1.4 13.1 6.55 L9.7 6.75 Q9.25 6.5 8.5 6.5 L1.95 7.7 -6.3 8.35 -8.8 9.2 Q-13.55 11.1 -15.65 12.45 -16.75 10.2 -16.75 7.7 -16.75 5.3 -15.65 3.15 -13.1 -1.9 -6.4 -3.75" fill="#000000" fill-rule="evenodd" stroke="none"/>
      <path d="M-5.65 -3.1 Q-5.65 -4.0 -4.35 -4.25 -2.85 -4.45 -2.4 -3.6 3.6 -4.15 7.55 -1.7 11.5 0.75 12.15 5.6 L11.45 5.6 Q8.1 5.6 5.7 6.4 L3.9 7.1 Q3.6 6.35 2.85 6.35 L-0.6 7.55 Q-4.25 7.55 -5.9 8.4 -8.45 9.8 -9.85 10.15 -13.35 10.95 -14.85 12.05 -17.2 7.0 -14.3 2.6 -11.55 -1.65 -5.65 -3.1" fill="#6f6f6f" fill-rule="evenodd" stroke="none"/>
      <path d="M12.25 6.65 L9.4 5.7 Q11.0 2.35 9.15 -0.5 12.1 2.35 12.25 6.65" fill="#3a3a3d" fill-rule="evenodd" stroke="none"/>
      <path d="M-18.15 9.15 Q-18.05 7.55 -19.3 7.5 -20.15 7.45 -19.85 7.1 L-19.4 6.7 -18.75 6.95 Q-18.1 7.3 -18.05 7.85 L-18.15 9.15" fill="#000000" fill-rule="evenodd" stroke="none"/>
      <path d="M-17.25 7.65 Q-16.3 7.65 -16.35 8.1 -16.35 8.55 -17.1 8.75 -17.5 8.85 -17.25 7.65" fill="#4c4c4e" fill-rule="evenodd" stroke="none"/>
      <path d="M-0.5 -3.7 L-0.45 -3.65 2.6 -2.2 Q5.85 0.4 7.05 6.1 L5.9 6.0 4.85 6.05 2.05 6.9 -2.95 7.7 Q-4.7 7.75 -6.4 8.35 -9.5 8.35 -12.8 10.45 L-14.9 12.05 Q-17.25 7.0 -14.35 2.6 -11.65 -1.65 -5.75 -3.1 -5.75 -4.0 -4.4 -4.25 -2.95 -4.45 -2.5 -3.6 L-0.5 -3.7" fill="#bbbdb8" fill-rule="evenodd" stroke="none"/>
      <path d="M-0.35 -1.45 L-0.15 -1.35 Q2.25 -0.15 7.65 5.8 L8.95 7.2 7.1 7.25 Q-6.3 7.5 -14.55 11.5 L-14.9 11.65 -15.25 11.45 Q-19.25 9.05 -21.0 6.7 -21.95 5.55 -21.45 3.85 -20.55 0.25 -13.9 -2.2 -6.8 -4.8 -0.35 -1.45" fill="#000000" fill-rule="evenodd" stroke="none"/>
      <path d="M-0.5 -0.6 Q1.8 0.6 7.1 6.4 -6.35 6.6 -14.85 10.7 -18.7 8.45 -20.4 6.15 -21.45 4.75 -20.15 2.8 -18.45 0.35 -13.6 -1.4 -6.85 -3.9 -0.5 -0.6" fill="#212321" fill-rule="evenodd" stroke="none"/>
      <path d="M-13.7 -1.4 Q-6.9 -3.9 -0.55 -0.6 0.05 -0.3 0.9 0.4 L0.75 0.3 Q-1.7 -1.2 -5.8 -1.55 -10.85 -2.0 -14.75 0.0 -19.4 2.4 -19.6 4.25 -19.85 6.7 -13.85 10.25 L-14.9 10.7 Q-18.75 8.45 -20.45 6.15 -21.5 4.75 -20.2 2.8 -18.55 0.35 -13.7 -1.4" fill="#6f6f6f" fill-rule="evenodd" stroke="none"/>
      <path d="M-6.9 1.65 Q0.45 0.85 5.95 5.5 L-11.25 9.95 Q-17.75 7.0 -15.1 4.6 -12.5 2.2 -6.9 1.65" fill="#000000" fill-rule="evenodd" stroke="none"/>
      <path d="M7.3 5.35 L6.7 4.85 Q5.7 -0.4 0.05 -3.4 5.95 -1.55 7.85 5.4 L7.3 5.35" fill="#212321" fill-rule="evenodd" stroke="none"/>
    </g>
  </defs>
</svg>
